X:190
T: KOMM HINAUS MIT INS FELD
N: F0332
O: Europa, Mitteleuropa, Deutschland
R: Jugend - Lied, Natur, Wander - Lied
M: 3/4
L: 1/8
K: G
GA | B2d2c2 | A4
GA | B2d2c2 | A4
d2 | e2c2A2 | d2B2
G2 | A2AGAB | G2z2

@@@ Tune index: 5621
